X:81
T:Astley's Hornpipe. THO5.081
R:.Hornpipe
M:C|
L:1/8
B:Thompson's Complete Collection of 200 Favourite Dances Vol.5
F:https://www.libraryofdance.org/manuals/1780c-Thompson-Compleat-5.pdf
Z:vmp. Peter Dunk 2024
Q:1/4=150
K:F
FGAB cAGF|gfed d2c2|AcAF BdBG|AcAF FED[cC]|
FGAB cAGF|gfed d2c2|AcAF BdBG|F2E2 F4:|
|:cdef egec|fafd egec|cdef gedc|AcAF EGE[cC]|
[AA,]cAF DdBG|Egec Fafd|cfed cBAG|F2E2 F4:|
W:
W:Cast off two Couples and up again ./.
W:Lead down two Couples, up again and cast off ./:
W:turn opposite corners :/.
W:Lead outsides :/:

